images/NWC.svg

<svg height="250" viewBox="0 0 250 250" width="250" xmlns="http://www.w3.org/2000/svg" xmlns:xlink="http://www.w3.org/1999/xlink"><clipPath id="a"><path d="m0 49h112v201h-112zm0 0"/></clipPath><clipPath id="b"><path d="m36.054688 174.476562 63.28125 31.160157v25.84375l-86.207032-42.394531v-121.707032l17.050782-8.378906-6.28125-9.257812-23.332032 11.464843v134.023438l111.332032 54.769531v-50.535156l-69.5625-34.21875zm0 0"/></clipPath><linearGradient id="c"><stop offset="0" stop-color="#35b7ea"/><stop offset=".13" stop-color="#35b7ea"/><stop offset="1" stop-color="#304ba0"/></linearGradient><linearGradient id="d" gradientTransform="matrix(0 348.982825 400.858651 0 -45393.645741 9875.499658)" gradientUnits="userSpaceOnUse" x1="-28.35" x2="-27.35" xlink:href="#c" y1="113.389999" y2="113.389999"/><clipPath id="e"><path d="m46 0h158v48h-158zm0 0"/></clipPath><clipPath id="f"><path d="m125.035156 12.347656 72.160156 35.511719 6.28125-9.261719-78.441406-38.597656-78.445312 38.570312 6.28125 9.261719zm0 0"/></clipPath><linearGradient id="g" gradientTransform="matrix(0 348.982825 400.858651 0 -45324.827172 9875.499658)" gradientUnits="userSpaceOnUse" x1="-28.35" x2="-27.35" xlink:href="#c" y1="113.389999" y2="113.389999"/><clipPath id="h"><path d="m46 38h158v49h-158zm0 0"/></clipPath><clipPath id="i"><path d="m125.035156 50.652344 72.160156 35.511718 6.28125-9.257812-78.441406-38.570312-78.445312 38.570312 6.28125 9.257812zm0 0"/></clipPath><clipPath id="j"><path d="m138 49h112v201h-112zm0 0"/></clipPath><clipPath id="k"><path d="m226.101562 49.742188-6.28125 9.257812 17.050782 8.378906v121.707032l-86.207032 42.394531v-25.84375l63.988282-31.484375-6.28125-9.257813-70.269532 34.570313v50.535156l111.332032-54.769531v-134.023438zm0 0"/></clipPath><linearGradient id="l" gradientTransform="matrix(0 348.982825 400.858651 0 -45256.110829 9875.499658)" gradientUnits="userSpaceOnUse" x1="-28.35" x2="-27.35" xlink:href="#c" y1="113.389999" y2="113.389999"/><clipPath id="m"><path d="m89 86h72v82h-72zm0 0"/></clipPath><clipPath id="n"><path d="m114.195312 148.222656c-.496093.03125-.992187.03125-1.488281 0 0 0-.300781-.144531-.300781-.261718-.121094-.40625-.1875-.820313-.203125-1.234376 0-2.058593 0-4.117187 0-6.144531 0-2.03125 0-3.824219 0-5.878906-.019531-.285156-.019531-.570313 0-.855469.101563-.261718.335937-.46875.640625-.558594h23.636719c1.148437-.035156 2.292969.113282 3.378906.441407 3.035156.894531 5.144531 3.300781 5.332031 6.085937.148438 1.195313.019532 2.402344-.371094 3.558594-1.039062 2.804688-3.976562 4.75-7.359374 4.878906h-23.265626m0-28.222656c-.484374.03125-.96875.03125-1.453124 0-.15625-.050781-.28125-.15625-.335938-.292969-.03125-.34375-.03125-.6875 0-1.03125 0-1.851562 0-3.671875 0-5.523437 0-1.855469 0-3.117188 0-4.644532-.054688-.421874-.054688-.847656 0-1.265624.023438-.222657.21875-.402344.472656-.441407h22.148438c2.082031-.058593 4.097656.632813 5.574218 1.910157 1.058594.964843 1.691407 2.226562 1.789063 3.558593v2.117188c-.292969 2.796875-2.75 5.058593-5.941406 5.464843-.8125 0-1.65625 0-2.46875 0h-19.921875m-12.191406-33.6875h-.976563c-.417969.054688-.734375.367188-.742187.734376v3.617187 2.117187c-.066407.363282-.421876.636719-.847657.644532h-8.070312c-.480469-.042969-.96875-.042969-1.449219 0-.234375.058594-.429688.195312-.542969.382812-.050781.203125-.050781.414063 0 .617188v11.230468c-.050781.203126-.050781.414063 0 .617188.035157.144531.148438.265625.304688.324219.328125.027343.65625.027343.980469 0h4.253906c.402344-.042969.8125-.042969 1.214844 0 .234374.054687.410156.230469.441406.441406.050781.554687.050781 1.117187 0 1.675781v27.132813 1.910156 2.734375 1.058594 4.851562c.015625.28125.015625.566406 0 .851563.007812.214843-.085938.425781-.257813.582031-.171875.152344-.40625.242188-.65625.242188h-5.605469c-.429687 0-.777343.300781-.777343.675781v1.058593 9.554688 1.261719c.097656.273437.355469.476562.675781.53125.496094.027343.992188.027343 1.488281 0h7.730469c.25-.027344.496094.042969.679688.191406.179687.144531.277343.355469.265624.570313v2.53125 1.910156c.035157.289062.308594.515625.644532.527344h12.929687 1.25c.332031-.046876.589844-.269532.644531-.558594 0-.351563 0-.703125 0-1.058594 0-.910156 0-1.820312 0-2.761719-.050781-.273437-.050781-.550781 0-.824219.089844-.191406.257813-.347656.472657-.441406.230469-.042968.472656-.042968.707031 0h2.5c1.722656 0 1.824219.265625 1.855469 1.617188.035156 1.351562 0 1.96875 0 2.941406 0 .96875 0 1.292969 1.621093 1.320312h13.035157c.777343 0 1.113281-.261718 1.113281-.851562 0-.585938 0-1.703125 0-2.558594 0-.851562 0-1.117187 0-1.675781.058594-.367187.390625-.652344.8125-.703125h1.722656c9.992188-.695312 18.355469-6.875 20.765625-15.347656 1.707031-5.785156.480469-11.929688-3.375-16.871094l-.40625-.53125-1.6875-2.058594c-.285156-.253906-.546875-.527344-.777343-.820312-.066407-.121094-.066407-.261719 0-.382813.304687-.5.640624-1 .980468-1.472656 1.363282-1.847656 2.328125-3.902344 2.835938-6.054687.589844-2.578126.65625-5.222657.203125-7.820313-.609375-3.527344-2.339844-6.835937-5-9.554687-3.535157-3.589844-8.4375-5.960938-13.808594-6.671876-2.0625-.292968-2.027344-.234374-2.027344-2.175781v-4c.035157-.28125.035157-.566406 0-.851562-.066406-.132813-.1875-.238281-.339843-.292969-.324219-.03125-.652344-.03125-.976563 0h-12.730469c-.324218-.058594-.65625-.058594-.980468 0-.21875.070312-.390626.222656-.472657.410156-.050781.34375-.050781.6875 0 1.03125v4.027344c.050781.351562.050781.707031 0 1.058594-.105469.183594-.285156.332031-.507812.410156-.15625.03125-.316407.03125-.472657 0h-3.375c-.292968.011719-.578124-.089844-.777343-.277344-.203125-.1875-.300781-.4375-.269531-.691406 0-1.265625 0-2.558594 0-3.824219 0-.558593 0-1.117187 0-1.675781-.046876-.363281-.390626-.648438-.8125-.675781h-13.40625"/></clipPath><g clip-path="url(#a)"><g clip-path="url(#b)"><path d="m.566406 49.742188h111.332032v200.257812h-111.332032zm0 0" fill="url(#d)"/></g></g><g clip-path="url(#e)"><g clip-path="url(#f)"><path d="m46.589844 0h156.851562v47.859375h-156.851562zm0 0" fill="url(#g)"/></g></g><g clip-path="url(#h)"><g clip-path="url(#i)"><path d="m46.589844 38.335938h156.851562v47.859374h-156.851562zm0 0" fill="url(#g)"/></g></g><g clip-path="url(#j)"><g clip-path="url(#k)"><path d="m138.101562 49.742188h111.332032v200.257812h-111.332032zm0 0" fill="url(#l)"/></g></g><g clip-path="url(#m)"><g clip-path="url(#n)"><path d="m89.136719 86.164062h72.636719v81.140626h-72.636719zm0 0" fill="url(#g)"/></g></g></svg>

<svg xmlns="http://www.w3.org/2000/svg" xmlns:xlink="http://www.w3.org/1999/xlink" width="250px" height="250px" viewBox="0 0 250 250" version="1.1">
<defs>
<clipPath id="clip1">
  <path d="M 0 49 L 112 49 L 112 250 L 0 250 Z M 0 49 "/>
</clipPath>
<clipPath id="clip2">
  <path d="M 36.054688 174.476562 L 99.335938 205.636719 L 99.335938 231.480469 L 13.128906 189.085938 L 13.128906 67.378906 L 30.179688 59 L 23.898438 49.742188 L 0.566406 61.207031 L 0.566406 195.230469 L 111.898438 250 L 111.898438 199.464844 L 42.335938 165.246094 Z M 36.054688 174.476562 "/>
</clipPath>
<linearGradient id="linear0" gradientUnits="userSpaceOnUse" x1="-28.35" y1="113.389999" x2="-27.35" y2="113.389999" gradientTransform="matrix(0,348.982825,400.858651,0,-45393.645741,9875.499658)">
<stop offset="0" style="stop-color:rgb(20.784314%,71.764708%,91.764706%);stop-opacity:1;"/>
<stop offset="0.13" style="stop-color:rgb(20.784314%,71.764708%,91.764706%);stop-opacity:1;"/>
<stop offset="1" style="stop-color:rgb(18.82353%,29.411766%,62.7451%);stop-opacity:1;"/>
</linearGradient>
<clipPath id="clip3">
  <path d="M 46 0 L 204 0 L 204 48 L 46 48 Z M 46 0 "/>
</clipPath>
<clipPath id="clip4">
  <path d="M 125.035156 12.347656 L 197.195312 47.859375 L 203.476562 38.597656 L 125.035156 0 L 46.589844 38.570312 L 52.871094 47.832031 Z M 125.035156 12.347656 "/>
</clipPath>
<linearGradient id="linear1" gradientUnits="userSpaceOnUse" x1="-28.35" y1="113.389999" x2="-27.35" y2="113.389999" gradientTransform="matrix(0,348.982825,400.858651,0,-45324.827172,9875.499658)">
<stop offset="0" style="stop-color:rgb(20.784314%,71.764708%,91.764706%);stop-opacity:1;"/>
<stop offset="0.13" style="stop-color:rgb(20.784314%,71.764708%,91.764706%);stop-opacity:1;"/>
<stop offset="1" style="stop-color:rgb(18.82353%,29.411766%,62.7451%);stop-opacity:1;"/>
</linearGradient>
<clipPath id="clip5">
  <path d="M 46 38 L 204 38 L 204 87 L 46 87 Z M 46 38 "/>
</clipPath>
<clipPath id="clip6">
  <path d="M 125.035156 50.652344 L 197.195312 86.164062 L 203.476562 76.90625 L 125.035156 38.335938 L 46.589844 76.90625 L 52.871094 86.164062 Z M 125.035156 50.652344 "/>
</clipPath>
<linearGradient id="linear2" gradientUnits="userSpaceOnUse" x1="-28.35" y1="113.389999" x2="-27.35" y2="113.389999" gradientTransform="matrix(0,348.982825,400.858651,0,-45324.827172,9875.499658)">
<stop offset="0" style="stop-color:rgb(20.784314%,71.764708%,91.764706%);stop-opacity:1;"/>
<stop offset="0.13" style="stop-color:rgb(20.784314%,71.764708%,91.764706%);stop-opacity:1;"/>
<stop offset="1" style="stop-color:rgb(18.82353%,29.411766%,62.7451%);stop-opacity:1;"/>
</linearGradient>
<clipPath id="clip7">
  <path d="M 138 49 L 250 49 L 250 250 L 138 250 Z M 138 49 "/>
</clipPath>
<clipPath id="clip8">
  <path d="M 226.101562 49.742188 L 219.820312 59 L 236.871094 67.378906 L 236.871094 189.085938 L 150.664062 231.480469 L 150.664062 205.636719 L 214.652344 174.152344 L 208.371094 164.894531 L 138.101562 199.464844 L 138.101562 250 L 249.433594 195.230469 L 249.433594 61.207031 Z M 226.101562 49.742188 "/>
</clipPath>
<linearGradient id="linear3" gradientUnits="userSpaceOnUse" x1="-28.35" y1="113.389999" x2="-27.35" y2="113.389999" gradientTransform="matrix(0,348.982825,400.858651,0,-45256.110829,9875.499658)">
<stop offset="0" style="stop-color:rgb(20.784314%,71.764708%,91.764706%);stop-opacity:1;"/>
<stop offset="0.13" style="stop-color:rgb(20.784314%,71.764708%,91.764706%);stop-opacity:1;"/>
<stop offset="1" style="stop-color:rgb(18.82353%,29.411766%,62.7451%);stop-opacity:1;"/>
</linearGradient>
<clipPath id="clip9">
  <path d="M 89 86 L 161 86 L 161 168 L 89 168 Z M 89 86 "/>
</clipPath>
<clipPath id="clip10">
  <path d="M 114.195312 148.222656 C 113.699219 148.253906 113.203125 148.253906 112.707031 148.222656 C 112.707031 148.222656 112.40625 148.078125 112.40625 147.960938 C 112.285156 147.554688 112.21875 147.140625 112.203125 146.726562 C 112.203125 144.667969 112.203125 142.609375 112.203125 140.582031 C 112.203125 138.550781 112.203125 136.757812 112.203125 134.703125 C 112.183594 134.417969 112.183594 134.132812 112.203125 133.847656 C 112.304688 133.585938 112.539062 133.378906 112.84375 133.289062 L 136.480469 133.289062 C 137.628906 133.253906 138.773438 133.402344 139.859375 133.730469 C 142.894531 134.625 145.003906 137.03125 145.191406 139.816406 C 145.339844 141.011719 145.210938 142.21875 144.820312 143.375 C 143.78125 146.179688 140.84375 148.125 137.460938 148.253906 L 114.195312 148.253906 M 114.195312 120.03125 C 113.710938 120.0625 113.226562 120.0625 112.742188 120.03125 C 112.585938 119.980469 112.460938 119.875 112.40625 119.738281 C 112.375 119.394531 112.375 119.050781 112.40625 118.707031 C 112.40625 116.855469 112.40625 115.035156 112.40625 113.183594 C 112.40625 111.328125 112.40625 110.066406 112.40625 108.539062 C 112.351562 108.117188 112.351562 107.691406 112.40625 107.273438 C 112.429688 107.050781 112.625 106.871094 112.878906 106.832031 L 135.027344 106.832031 C 137.109375 106.773438 139.125 107.464844 140.601562 108.742188 C 141.660156 109.707031 142.292969 110.96875 142.390625 112.300781 C 142.390625 113.003906 142.390625 113.710938 142.390625 114.417969 C 142.097656 117.214844 139.640625 119.476562 136.449219 119.882812 C 135.636719 119.882812 134.792969 119.882812 133.980469 119.882812 L 114.058594 119.882812 M 101.867188 86.195312 L 100.890625 86.195312 C 100.472656 86.25 100.15625 86.5625 100.148438 86.929688 C 100.148438 88.136719 100.148438 89.339844 100.148438 90.546875 C 100.148438 91.222656 100.148438 91.957031 100.148438 92.664062 C 100.082031 93.027344 99.726562 93.300781 99.300781 93.308594 L 91.230469 93.308594 C 90.75 93.265625 90.261719 93.265625 89.78125 93.308594 C 89.546875 93.367188 89.351562 93.503906 89.238281 93.691406 C 89.1875 93.894531 89.1875 94.105469 89.238281 94.308594 L 89.238281 105.539062 C 89.1875 105.742188 89.1875 105.953125 89.238281 106.15625 C 89.273438 106.300781 89.386719 106.421875 89.542969 106.480469 C 89.871094 106.507812 90.199219 106.507812 90.523438 106.480469 L 94.777344 106.480469 C 95.179688 106.4375 95.589844 106.4375 95.992188 106.480469 C 96.226562 106.535156 96.402344 106.710938 96.433594 106.921875 C 96.484375 107.476562 96.484375 108.039062 96.433594 108.597656 L 96.433594 135.730469 C 96.433594 136.378906 96.433594 136.996094 96.433594 137.640625 L 96.433594 140.375 C 96.433594 140.726562 96.433594 141.082031 96.433594 141.433594 L 96.433594 146.285156 C 96.449219 146.566406 96.449219 146.851562 96.433594 147.136719 C 96.441406 147.351562 96.347656 147.5625 96.175781 147.71875 C 96.003906 147.871094 95.769531 147.960938 95.519531 147.960938 L 89.914062 147.960938 C 89.484375 147.960938 89.136719 148.261719 89.136719 148.636719 C 89.136719 148.988281 89.136719 149.339844 89.136719 149.695312 L 89.136719 159.25 C 89.136719 159.660156 89.136719 160.101562 89.136719 160.511719 C 89.234375 160.785156 89.492188 160.988281 89.8125 161.042969 C 90.308594 161.070312 90.804688 161.070312 91.300781 161.042969 L 99.03125 161.042969 C 99.28125 161.015625 99.527344 161.085938 99.710938 161.234375 C 99.890625 161.378906 99.988281 161.589844 99.976562 161.804688 C 99.976562 162.660156 99.976562 163.480469 99.976562 164.335938 C 99.976562 165.1875 99.976562 165.597656 99.976562 166.246094 C 100.011719 166.535156 100.285156 166.761719 100.621094 166.773438 L 113.550781 166.773438 C 113.992188 166.773438 114.398438 166.773438 114.800781 166.773438 C 115.132812 166.726562 115.390625 166.503906 115.445312 166.214844 C 115.445312 165.863281 115.445312 165.511719 115.445312 165.15625 C 115.445312 164.246094 115.445312 163.335938 115.445312 162.394531 C 115.394531 162.121094 115.394531 161.84375 115.445312 161.570312 C 115.535156 161.378906 115.703125 161.222656 115.917969 161.128906 C 116.148438 161.085938 116.390625 161.085938 116.625 161.128906 L 119.125 161.128906 C 120.847656 161.128906 120.949219 161.394531 120.980469 162.746094 C 121.015625 164.097656 120.980469 164.714844 120.980469 165.6875 C 120.980469 166.65625 120.980469 166.980469 122.601562 167.007812 L 135.636719 167.007812 C 136.414062 167.007812 136.75 166.746094 136.75 166.15625 C 136.75 165.570312 136.75 164.453125 136.75 163.597656 C 136.75 162.746094 136.75 162.480469 136.75 161.921875 C 136.808594 161.554688 137.140625 161.269531 137.5625 161.21875 L 139.285156 161.21875 C 149.277344 160.523438 157.640625 154.34375 160.050781 145.871094 C 161.757812 140.085938 160.53125 133.941406 156.675781 129 L 156.269531 128.46875 L 154.582031 126.410156 C 154.296875 126.15625 154.035156 125.882812 153.804688 125.589844 C 153.738281 125.46875 153.738281 125.328125 153.804688 125.207031 C 154.109375 124.707031 154.445312 124.207031 154.785156 123.734375 C 156.148438 121.886719 157.113281 119.832031 157.621094 117.679688 C 158.210938 115.101562 158.277344 112.457031 157.824219 109.859375 C 157.214844 106.332031 155.484375 103.023438 152.824219 100.304688 C 149.289062 96.714844 144.386719 94.34375 139.015625 93.632812 C 136.953125 93.339844 136.988281 93.398438 136.988281 91.457031 L 136.988281 87.457031 C 137.023438 87.175781 137.023438 86.890625 136.988281 86.605469 C 136.921875 86.472656 136.800781 86.367188 136.648438 86.3125 C 136.324219 86.28125 135.996094 86.28125 135.671875 86.3125 L 122.941406 86.3125 C 122.617188 86.253906 122.285156 86.253906 121.960938 86.3125 C 121.742188 86.382812 121.570312 86.535156 121.488281 86.722656 C 121.4375 87.066406 121.4375 87.410156 121.488281 87.753906 C 121.488281 89.105469 121.488281 90.457031 121.488281 91.78125 C 121.539062 92.132812 121.539062 92.488281 121.488281 92.839844 C 121.382812 93.023438 121.203125 93.171875 120.980469 93.25 C 120.824219 93.28125 120.664062 93.28125 120.507812 93.25 L 117.132812 93.25 C 116.839844 93.261719 116.554688 93.160156 116.355469 92.972656 C 116.152344 92.785156 116.054688 92.535156 116.085938 92.28125 C 116.085938 91.015625 116.085938 89.722656 116.085938 88.457031 C 116.085938 87.898438 116.085938 87.339844 116.085938 86.78125 C 116.039062 86.417969 115.695312 86.132812 115.273438 86.105469 L 101.867188 86.105469 "/>
</clipPath>
<linearGradient id="linear4" gradientUnits="userSpaceOnUse" x1="-28.35" y1="113.389999" x2="-27.35" y2="113.389999" gradientTransform="matrix(0,348.982825,400.858651,0,-45324.827172,9875.499658)">
<stop offset="0" style="stop-color:rgb(20.784314%,71.764708%,91.764706%);stop-opacity:1;"/>
<stop offset="0.13" style="stop-color:rgb(20.784314%,71.764708%,91.764706%);stop-opacity:1;"/>
<stop offset="1" style="stop-color:rgb(18.82353%,29.411766%,62.7451%);stop-opacity:1;"/>
</linearGradient>
</defs>
<g id="surface1">
<g clip-path="url(#clip1)" clip-rule="nonzero">
<g clip-path="url(#clip2)" clip-rule="nonzero">
<path style=" stroke:none;fill-rule:nonzero;fill:url(#linear0);" d="M 0.566406 49.742188 L 111.898438 49.742188 L 111.898438 250 L 0.566406 250 Z M 0.566406 49.742188 "/>
</g>
</g>
<g clip-path="url(#clip3)" clip-rule="nonzero">
<g clip-path="url(#clip4)" clip-rule="nonzero">
<path style=" stroke:none;fill-rule:nonzero;fill:url(#linear1);" d="M 46.589844 0 L 203.441406 0 L 203.441406 47.859375 L 46.589844 47.859375 Z M 46.589844 0 "/>
</g>
</g>
<g clip-path="url(#clip5)" clip-rule="nonzero">
<g clip-path="url(#clip6)" clip-rule="nonzero">
<path style=" stroke:none;fill-rule:nonzero;fill:url(#linear2);" d="M 46.589844 38.335938 L 203.441406 38.335938 L 203.441406 86.195312 L 46.589844 86.195312 Z M 46.589844 38.335938 "/>
</g>
</g>
<g clip-path="url(#clip7)" clip-rule="nonzero">
<g clip-path="url(#clip8)" clip-rule="nonzero">
<path style=" stroke:none;fill-rule:nonzero;fill:url(#linear3);" d="M 138.101562 49.742188 L 249.433594 49.742188 L 249.433594 250 L 138.101562 250 Z M 138.101562 49.742188 "/>
</g>
</g>
<g clip-path="url(#clip9)" clip-rule="nonzero">
<g clip-path="url(#clip10)" clip-rule="nonzero">
<path style=" stroke:none;fill-rule:nonzero;fill:url(#linear4);" d="M 89.136719 86.164062 L 161.773438 86.164062 L 161.773438 167.304688 L 89.136719 167.304688 Z M 89.136719 86.164062 "/>
</g>
</g>
</g>
</svg>
